X:9
T:On Approval
T:William Taylor's Tabletop Hornpipe
M:4/4
L:1/8
P:ABABABABABAB
K:Emin
|[E8G8B8E,8]|[D8F8A8D,8]|[E8G8B8E,8]|[D8F8A8D,8]|[E8G8B8E,8]|[D8F8A8D,8]|[C8E8G8c,,8]|[D2F2A2D,2][E2G2B2E,2][E2G2B2E,2][E2G2B2E,2]||
P:A
| "Em" E2E2 "Em" E>FG>E| "Em" F>GF>E "Em" D2B,2| "Em" B2B2 "Bm" A>BA>G| "D" F>ED>E "D" F>GA>F|
"Em" E2E2 "Em" E>FG>E| "Em" F>GF>E "Em" D2B,2| "D" B>AG>F "Em" E>GF>D| "Em" E2E2 "Em" E4|
P:B
| "Em" B>GE>G "Em" B2B2| "D" A>FD>F "A" A2A2| "D" G>FE>D "D" E2E>G| "Bm" F>ED>E "D" F2F2|
"G" B>GD>G "Em" B2B2| "A" A>EC>E "A" A2A2| "D" G>FE>D "Em" E>GF>D| "Em" E2E2 "Em" E4|

